X:4230
T:Miss Conyer's Whim. HSJJ.017
O:england
M:6/8
L:1/8
S:HSJ Jackson,Wyresdale,Lancs.1823
R:Jig
A:Lancashire
H:1823
K:G
d|g2d BAG|BcB def|g2d BAG|cABc2d/e/|g2d BAG|BBB def|gab efg|cABc2:|
|:d/-c/|B2d dcB|c2e edc|B2d dcB|cdeA2d/c/|Bcd dcB|cde edc|gab efg|cABc2
:|]


